src/static/favicon.svg

<svg
  width="46"
  height="46"
  viewBox="0 0 46 46"
  fill="none"
  xmlns="http://www.w3.org/2000/svg"
>
  <g clip-path="url(#clip0_114_80)">
    <path
      d="M26.7792 17.4996C27.6348 13.8661 36.0988 4.77285 40.1376 7.80706C44.8388 11.45 39.3556 18.7639 37.4236 21.5921C37.4236 21.5921 37.0372 17.6776 33.9552 14.1283C31.4988 15.711 29.2264 17.303 27.8924 18.2582C27.773 18.3382 27.633 18.3806 27.49 18.3801C27.347 18.3795 27.2073 18.336 27.0885 18.255C26.9696 18.1741 26.8769 18.0592 26.8219 17.9248C26.7669 17.7905 26.752 17.6426 26.7792 17.4996V17.4996ZM30.2292 22.9874C30.1273 23.0356 30.0387 23.1087 29.9713 23.2002C29.9038 23.2917 29.8597 23.3988 29.8428 23.5119C29.8107 23.6875 29.8436 23.869 29.9354 24.0212C30.0272 24.1735 30.1712 24.2856 30.3396 24.336C31.9036 24.8042 34.544 25.6283 37.2856 26.6023C36.476 31.2659 33.716 34.0098 33.716 34.0098C37.0924 33.7851 46.1176 33.6071 45.998 27.5856C45.8232 22.4817 33.5596 21.4048 30.2292 22.9874ZM28.1592 29.1495C28.0297 29.0844 27.8837 29.0613 27.7408 29.0831C27.5979 29.1049 27.465 29.1706 27.3599 29.2715C27.2548 29.3724 27.1825 29.5036 27.1527 29.6475C27.1229 29.7914 27.1371 29.9411 27.1932 30.0766C27.8004 31.6124 28.8216 34.2252 29.7784 37.0253C25.6844 39.2822 21.8572 38.7859 21.8572 38.7859C24.1296 41.3331 29.8888 48.4129 34.4336 44.5733C38.2516 41.2582 31.4528 30.8164 28.1592 29.1495ZM22.1332 31.3408C22.1101 31.2285 22.0602 31.1237 21.988 31.0356C21.9159 30.9474 21.8236 30.8786 21.7192 30.8351C21.5584 30.7614 21.3761 30.7522 21.2088 30.8095C21.0416 30.8668 20.9019 30.9864 20.8176 31.1442C20.0172 32.5864 18.6372 35.0212 17.0824 37.5216C12.8044 35.6674 10.7988 32.3054 10.7988 32.3054C10.256 35.7049 8.39764 44.7044 14.1844 45.9406C19.1064 46.9145 22.906 34.9931 22.1332 31.3408V31.3408ZM16.7052 27.8946C16.7729 27.8054 16.8197 27.7017 16.842 27.5914C16.8644 27.481 16.8616 27.3669 16.834 27.2578C16.7903 27.0831 16.6839 26.9313 16.5358 26.8325C16.3876 26.7337 16.2085 26.695 16.0336 26.724C14.4236 26.9862 11.6912 27.4076 8.80244 27.726C7.56044 23.156 8.89444 19.4756 8.89444 19.4756C5.94124 21.1519 -2.12716 25.2818 0.52244 30.6479C2.84084 35.1804 14.3684 30.779 16.7052 27.8946V27.8946ZM15.96 21.4235C16.0726 21.4269 16.1842 21.4023 16.2853 21.3517C16.3863 21.3011 16.4736 21.226 16.5396 21.1332C16.6454 20.988 16.6945 20.8081 16.6775 20.6282C16.6605 20.4483 16.5786 20.2813 16.4476 20.1593C15.2424 19.0448 13.2184 17.1344 11.176 15.0273C13.9176 11.1971 17.5792 9.97033 17.5792 9.97033C14.4512 8.65925 6.25404 4.79158 3.77924 10.2606C1.73684 14.9243 12.2892 21.3673 15.96 21.4235V21.4235ZM21.066 17.0876C21.2424 17.0812 21.4102 17.0089 21.5375 16.8845C21.6648 16.7602 21.7426 16.5924 21.756 16.4133C21.8572 14.7558 22.078 11.9557 22.4184 9.01512C27.0736 8.80909 30.2936 10.963 30.2936 10.963C29.3552 7.65722 27.2208 -1.27682 21.48 0.146633C16.6224 1.42961 18.2416 13.8474 20.4772 16.816C20.5477 16.905 20.6376 16.9759 20.7399 17.0231C20.8422 17.0703 20.9539 17.0924 21.066 17.0876V17.0876Z"
      fill="#ffffff"
    />
  </g>
  <defs>
    <clipPath id="clip0_114_80">
      <rect
        width="46"
        height="46"
        fill="white"
      />
    </clipPath>
  </defs>
</svg>

<svg xmlns="http://www.w3.org/2000/svg" width="46" height="46" fill="none"><g clip-path="url(#a)"><path fill="#fff" d="M26.78 17.5c.855-3.634 9.319-12.727 13.358-9.693 4.7 3.643-.782 10.957-2.714 13.785 0 0-.387-3.914-3.469-7.464a155.657 155.657 0 0 0-6.063 4.13.718.718 0 0 1-1.07-.333.752.752 0 0 1-.043-.425Zm3.45 5.487a.684.684 0 0 0-.387.525.732.732 0 0 0 .092.51.71.71 0 0 0 .405.314c1.564.468 4.204 1.292 6.946 2.266-.81 4.664-3.57 7.408-3.57 7.408 3.376-.225 12.402-.403 12.282-6.424-.175-5.104-12.438-6.181-15.769-4.599Zm-2.07 6.163a.697.697 0 0 0-.8.122.725.725 0 0 0-.167.805 159.065 159.065 0 0 1 2.585 6.948c-4.094 2.257-7.92 1.76-7.92 1.76 2.272 2.548 8.03 9.628 12.576 5.788 3.818-3.315-2.981-13.757-6.275-15.424Zm-6.027 2.19a.706.706 0 0 0-.414-.505.688.688 0 0 0-.51-.026.703.703 0 0 0-.391.335c-.8 1.442-2.18 3.877-3.736 6.378-4.278-1.855-6.283-5.217-6.283-5.217-.543 3.4-2.401 12.4 3.385 13.636 4.922.973 8.722-10.948 7.95-14.6Zm-5.428-3.445a.746.746 0 0 0-.17-1.063.698.698 0 0 0-.501-.108c-1.61.262-4.343.684-7.232 1.002-1.242-4.57.092-8.25.092-8.25C5.941 21.152-2.127 25.282.522 30.648c2.319 4.532 13.846.131 16.183-2.753Zm-.745-6.471a.68.68 0 0 0 .58-.29.74.74 0 0 0-.092-.975 139.368 139.368 0 0 1-5.272-5.132c2.742-3.83 6.403-5.057 6.403-5.057-3.128-1.31-11.325-5.178-13.8.29-2.042 4.664 8.51 11.107 12.181 11.164Zm5.106-4.336a.711.711 0 0 0 .472-.204.735.735 0 0 0 .218-.47c.101-1.658.322-4.458.662-7.399 4.656-.206 7.876 1.948 7.876 1.948C29.355 7.657 27.22-1.277 21.48.147c-4.858 1.283-3.238 13.7-1.003 16.669a.72.72 0 0 0 .589.272Z"/></g><defs><clipPath id="a"><path fill="#fff" d="M0 0h46v46H0z"/></clipPath></defs></svg>
